images/logo.svg

<svg width="192" height="23" viewBox="0 0 192 23" fill="none" xmlns="http://www.w3.org/2000/svg">
<path d="M12.3967 0.714865H15.4626V22.4716H12.3967V12.4324H3.066V22.4716H0V0.714865H3.066V9.2H12.3967V0.714865Z" fill="white"/>
<path d="M28.5825 22.8757C27.1871 22.8757 25.8752 22.5856 24.6468 22.0054C23.4185 21.4149 22.3375 20.6016 21.4039 19.5655C20.4704 18.5295 19.7383 17.3329 19.2076 15.9757C18.677 14.6081 18.4116 13.1473 18.4116 11.5932C18.4116 10.0392 18.677 8.58356 19.2076 7.22635C19.7383 5.85878 20.4704 4.65698 21.4039 3.62095C22.3375 2.58491 23.4185 1.7768 24.6468 1.19662C25.8752 0.606081 27.1871 0.31081 28.5825 0.31081C29.9877 0.31081 31.3046 0.606081 32.5329 1.19662C33.7613 1.7768 34.8422 2.58491 35.7758 3.62095C36.7094 4.65698 37.4366 5.85878 37.9574 7.22635C38.488 8.58356 38.7534 10.0392 38.7534 11.5932C38.7534 13.1473 38.488 14.6081 37.9574 15.9757C37.4366 17.3329 36.7094 18.5295 35.7758 19.5655C34.8422 20.6016 33.7613 21.4149 32.5329 22.0054C31.3046 22.5856 29.9877 22.8757 28.5825 22.8757ZM28.5825 19.6432C29.5652 19.6432 30.484 19.4309 31.3389 19.0061C32.1939 18.5813 32.9456 18.0011 33.5942 17.2655C34.2526 16.5196 34.7636 15.6649 35.1272 14.7013C35.5006 13.7275 35.6874 12.6914 35.6874 11.5932C35.6874 10.495 35.5006 9.45901 35.1272 8.48514C34.7636 7.51126 34.2526 6.65653 33.5942 5.92095C32.9456 5.175 32.1939 4.59482 31.3389 4.18041C30.484 3.75563 29.5652 3.54324 28.5825 3.54324C27.5998 3.54324 26.681 3.75563 25.8261 4.18041C24.9711 4.60518 24.2144 5.19054 23.556 5.93649C22.9075 6.67207 22.3965 7.5268 22.023 8.50068C21.6594 9.46419 21.4776 10.495 21.4776 11.5932C21.4776 12.7018 21.6594 13.743 22.023 14.7169C22.3965 15.6804 22.9075 16.5351 23.556 17.2811C24.2144 18.0167 24.9711 18.5968 25.8261 19.0216C26.681 19.436 27.5998 19.6432 28.5825 19.6432Z" fill="white"/>
<path d="M49.6522 22.8757C48.0013 22.8757 46.5617 22.4509 45.3333 21.6014C44.1148 20.7518 43.1665 19.6122 42.4884 18.1824C41.8202 16.7423 41.4861 15.1468 41.4861 13.3959V0.714865H44.5521V13.3959C44.5521 14.5356 44.7486 15.582 45.1417 16.5351C45.5446 17.4779 46.1244 18.2342 46.8811 18.8041C47.6476 19.3635 48.5713 19.6432 49.6522 19.6432C50.7627 19.6432 51.6962 19.3635 52.4529 18.8041C53.2096 18.2342 53.7795 17.4779 54.1628 16.5351C54.5559 15.582 54.7524 14.5356 54.7524 13.3959V0.714865H57.8184V13.3959C57.8184 14.7117 57.6268 15.9446 57.2435 17.0946C56.8603 18.2342 56.31 19.2392 55.5926 20.1095C54.8752 20.9797 54.0154 21.6583 53.0131 22.1453C52.0107 22.6322 50.8904 22.8757 49.6522 22.8757Z" fill="white"/>
<path d="M68.7065 22.8757C67.5764 22.8757 66.4905 22.6892 65.4489 22.3162C64.4072 21.9432 63.4982 21.4097 62.7219 20.7155C61.9456 20.011 61.3903 19.177 61.0562 18.2135L63.9306 17.0791C64.0977 17.5764 64.417 18.0218 64.8887 18.4155C65.3702 18.7989 65.9402 19.0993 66.5986 19.3169C67.2668 19.5345 67.9695 19.6432 68.7065 19.6432C69.4926 19.6432 70.2297 19.5086 70.9175 19.2392C71.6152 18.9698 72.1754 18.5968 72.5979 18.1203C73.0303 17.6437 73.2465 17.0842 73.2465 16.4419C73.2465 15.7788 73.0205 15.2349 72.5685 14.8101C72.1263 14.3854 71.5563 14.0486 70.8586 13.8C70.1707 13.5514 69.4533 13.3649 68.7065 13.2405C67.2619 12.9919 65.9648 12.6293 64.815 12.1527C63.6751 11.6761 62.771 11.0079 62.1028 10.148C61.4444 9.28806 61.1152 8.16914 61.1152 6.79122C61.1152 5.49617 61.464 4.36689 62.1618 3.40338C62.8693 2.43986 63.7979 1.69392 64.9477 1.16554C66.1073 0.626802 67.3602 0.357432 68.7065 0.357432C69.8169 0.357432 70.8881 0.543919 71.9199 0.916892C72.9615 1.2795 73.8754 1.81306 74.6616 2.51757C75.4576 3.21171 76.0275 4.05608 76.3715 5.05068L73.4676 6.15405C73.3006 5.6464 72.9812 5.20608 72.5095 4.83311C72.0378 4.44977 71.4678 4.14932 70.7996 3.93176C70.1412 3.71419 69.4435 3.6054 68.7065 3.6054C67.9203 3.59504 67.1833 3.72973 66.4954 4.00946C65.8174 4.27883 65.2621 4.6518 64.8298 5.12838C64.3974 5.60495 64.1812 6.15923 64.1812 6.79122C64.1812 7.56824 64.3826 8.15878 64.7855 8.56284C65.1884 8.96689 65.7289 9.26734 66.407 9.46419C67.0949 9.65067 67.8614 9.82162 68.7065 9.97703C70.0626 10.205 71.3155 10.5831 72.4653 11.1115C73.6248 11.6399 74.5535 12.3444 75.2512 13.225C75.9587 14.0953 76.3125 15.1676 76.3125 16.4419C76.3125 17.7266 75.9587 18.8559 75.2512 19.8297C74.5535 20.7932 73.6248 21.5444 72.4653 22.0831C71.3155 22.6115 70.0626 22.8757 68.7065 22.8757Z" fill="white"/>
<path d="M79.7189 22.4716V0.714865H92.5283V3.9473H82.7849V9.2H90.6268V12.4324H82.7849V19.2392H92.5283V22.4716H79.7189Z" fill="white"/>
<path d="M103.272 0.683784C110.052 0.683784 114.15 4.44459 114.15 10.9095C114.15 18.2135 108.873 22.2541 102.682 22.2541H94.398V22.1919C95.4593 22.0986 96.2553 21.1662 96.2553 20.0162V2.89054C96.2553 1.77162 95.4593 0.839189 94.398 0.714865V0.683784H103.272ZM102.977 21.7878C108.136 21.7878 111.438 19.6743 111.438 12.3703C111.438 5.90541 108.814 0.963514 102.092 0.963514H98.6432V20.7622C99.7046 21.3527 101.179 21.7878 102.977 21.7878Z" fill="white"/>
<path d="M124.119 21.9743C126.979 21.9743 129.573 20.2959 130.87 17.6541L129.838 23L128.865 22.2541H115.098V22.1919C116.13 22.0986 116.955 21.1662 116.955 20.0473V2.89054C116.955 1.77162 116.13 0.839189 115.098 0.714865V0.683784H129.986L130.87 5.28378C129.573 2.61081 126.979 0.932433 124.119 0.932433H119.343V11.3446H124.148C125.564 11.3446 126.831 10.4122 127.362 9.04459H127.421V13.8932H127.362C126.831 12.4946 125.564 11.5932 124.148 11.5932H119.343V21.9743H124.119Z" fill="white"/>
<path d="M148.341 19.2703C149.284 18.4311 149.992 17.5608 150.228 16.9703L150.405 16.5351C150.316 16.8149 150.287 17.1568 149.579 18.4311C149.255 19.0527 148.842 19.6122 148.4 20.1405C147.456 21.1351 145.747 22.2851 143.801 22.5649C140.322 23.0622 137.168 21.9122 135.163 19.7986C133.158 17.6851 132.009 14.7946 131.92 11.873C131.832 8.32973 133.011 5.31486 134.927 3.45C136.814 1.58514 139.261 0.497298 142.003 0.27973C143.329 0.186488 144.626 0.248649 145.923 0.528379C147.368 0.839189 148.754 1.46081 149.255 1.83378C149.579 2.05135 150.08 2.42432 150.552 2.82838L148.547 4.7554C147.545 3.32568 146.336 2.23784 144.862 1.52297C142.504 0.372974 140.352 0.435135 138.288 1.70946C137.05 2.48649 136.077 3.72973 135.458 5.40811C134.839 7.11757 134.603 9.01351 134.75 11.127C134.957 13.9865 135.9 16.2865 137.61 18.027C139.32 19.7986 141.383 20.6689 143.771 20.7C145.688 20.7 147.397 20.0473 148.341 19.2703Z" fill="white"/>
<path d="M162.667 0C168.681 0 173.634 4.32027 173.634 11.3446C173.634 18.3378 168.681 22.6892 162.667 22.6892C156.653 22.6892 151.7 18.3378 151.7 11.3446C151.7 4.32027 156.653 0 162.667 0ZM163.846 22.1919C168.239 22.1919 171.128 18.4622 171.128 13.0541C171.128 6.71351 167.089 0.497298 161.488 0.497298C157.095 0.497298 154.206 4.22703 154.206 9.57297C154.206 15.9446 158.245 22.1919 163.846 22.1919Z" fill="white"/>
<path d="M179.028 13.5514C182.094 16.9081 186.399 18.9905 191.175 18.9905C191.44 18.9905 191.735 18.9905 192 18.9595L188.934 21.9122C184.453 20.9176 180.738 17.7473 178.822 13.4892C178.822 13.4892 178.822 13.4892 178.793 13.4892V20.0473C178.822 21.1662 179.618 22.0986 180.679 22.1919V22.2541H174.547V22.1919C175.579 22.0986 176.405 21.1662 176.405 20.0473V2.85946C176.405 1.74054 175.579 0.839189 174.547 0.714865V0.683784H184.306C188.698 0.683784 192 2.67297 192 6.65135C192 11.0027 188.551 14.3595 183.244 14.2041C181.21 14.1419 179.677 13.7378 179.028 13.5514ZM182.773 0.994595H178.793V13.3027C179.795 13.5514 181.387 13.8 181.446 13.8C181.475 13.8 181.534 13.8 181.593 13.8C181.623 13.8 181.682 13.8311 181.711 13.8311C182.183 13.8622 182.655 13.8932 183.097 13.9243C183.215 13.9243 183.333 13.9243 183.421 13.9243C187.666 13.9243 189.376 11.3135 189.376 7.73919C189.376 4.41351 188.551 0.994595 182.773 0.994595Z" fill="white"/>
</svg>

<svg xmlns="http://www.w3.org/2000/svg" width="192" height="23" fill="none" viewBox="0 0 192 23"><path fill="#fff" d="M12.397.715h3.066v21.757h-3.066v-10.04H3.066v10.04H0V.715h3.066V9.2h9.33zm16.186 22.161a9.1 9.1 0 0 1-3.936-.87 10.4 10.4 0 0 1-3.243-2.44 11.6 11.6 0 0 1-2.196-3.59q-.796-2.052-.796-4.383t.796-4.367a11.6 11.6 0 0 1 2.196-3.605 10.2 10.2 0 0 1 3.243-2.424A9 9 0 0 1 28.583.31a9 9 0 0 1 3.95.886 10.2 10.2 0 0 1 3.243 2.424 11.4 11.4 0 0 1 2.181 3.605q.796 2.037.796 4.367t-.796 4.383a11.4 11.4 0 0 1-2.181 3.59 10.4 10.4 0 0 1-3.243 2.44 9.1 9.1 0 0 1-3.95.87m0-3.233a6.1 6.1 0 0 0 2.756-.637 7.3 7.3 0 0 0 2.255-1.74 8.2 8.2 0 0 0 1.533-2.565q.56-1.461.56-3.108a8.6 8.6 0 0 0-.56-3.108 8 8 0 0 0-1.533-2.564 7 7 0 0 0-2.255-1.74 6.1 6.1 0 0 0-2.756-.638 6.1 6.1 0 0 0-2.757.637 7.4 7.4 0 0 0-2.27 1.756A8.4 8.4 0 0 0 22.023 8.5a8.7 8.7 0 0 0-.545 3.092q0 1.663.545 3.124a8.6 8.6 0 0 0 1.533 2.564 7.5 7.5 0 0 0 2.27 1.74 6.2 6.2 0 0 0 2.756.622m21.07 3.234q-2.475 0-4.319-1.275-1.827-1.274-2.845-3.419-1.002-2.16-1.002-4.786V.715h3.066v12.68q0 1.71.59 3.14.604 1.415 1.74 2.27 1.15.837 2.77.838 1.665 0 2.8-.839 1.137-.855 1.71-2.269.59-1.43.59-3.14V.716h3.066v12.68q0 1.975-.575 3.7a9.4 9.4 0 0 1-1.65 3.015 7.6 7.6 0 0 1-2.58 2.035q-1.504.73-3.36.73m19.054 0a9.6 9.6 0 0 1-3.258-.56 8.2 8.2 0 0 1-2.727-1.6 6 6 0 0 1-1.666-2.503l2.875-1.134q.25.746.958 1.337a5.5 5.5 0 0 0 1.71.9q1.002.328 2.108.327 1.18 0 2.21-.404 1.047-.404 1.68-1.119a2.42 2.42 0 0 0 .65-1.678q0-.994-.678-1.632-.665-.637-1.71-1.01a12 12 0 0 0-2.152-.56q-2.167-.372-3.892-1.087-1.71-.715-2.712-2.005-.988-1.29-.988-3.357 0-1.942 1.047-3.388 1.06-1.445 2.786-2.237 1.74-.81 3.759-.809 1.665 0 3.213.56a8 8 0 0 1 2.742 1.6 5.84 5.84 0 0 1 1.71 2.534l-2.904 1.103q-.25-.762-.959-1.32-.707-.576-1.71-.902a6.6 6.6 0 0 0-2.093-.327 5.6 5.6 0 0 0-2.21.404q-1.018.405-1.666 1.12a2.4 2.4 0 0 0-.649 1.662q0 1.166.605 1.772.603.606 1.621.901 1.031.28 2.3.513 2.034.342 3.758 1.134 1.74.793 2.786 2.114 1.061 1.305 1.061 3.217 0 1.927-1.06 3.388-1.047 1.444-2.787 2.253-1.725.793-3.758.793m11.012-.404V.715h12.81v3.232h-9.744V9.2h7.842v3.232h-7.842v6.807h9.743v3.233zM103.272.684c6.78 0 10.878 3.76 10.878 10.226 0 7.304-5.277 11.344-11.468 11.344h-8.284v-.062c1.061-.093 1.857-1.026 1.857-2.176V2.891c0-1.12-.796-2.052-1.857-2.176V.684zm-.295 21.104c5.159 0 8.461-2.114 8.461-9.418 0-6.465-2.624-11.406-9.346-11.406h-3.449v19.798c1.062.59 2.536 1.026 4.334 1.026m21.142.186c2.86 0 5.454-1.678 6.751-4.32L129.838 23l-.973-.746h-13.767v-.062c1.032-.093 1.857-1.026 1.857-2.145V2.891c0-1.12-.825-2.052-1.857-2.176V.684h14.888l.884 4.6c-1.297-2.673-3.891-4.352-6.751-4.352h-4.776v10.413h4.805c1.416 0 2.683-.933 3.214-2.3h.059v4.848h-.059c-.531-1.398-1.798-2.3-3.214-2.3h-4.805v10.381zm24.222-2.704c.943-.839 1.651-1.71 1.887-2.3l.177-.435c-.089.28-.118.622-.826 1.896-.324.622-.737 1.181-1.179 1.71-.944.994-2.653 2.144-4.599 2.424-3.479.497-6.633-.653-8.638-2.766s-3.154-5.004-3.243-7.926c-.088-3.543 1.091-6.558 3.007-8.423 1.887-1.865 4.334-2.953 7.076-3.17 1.326-.094 2.623-.031 3.92.248 1.445.311 2.831.933 3.332 1.306.324.217.825.59 1.297.994l-2.005 1.927c-1.002-1.43-2.211-2.517-3.685-3.232-2.358-1.15-4.51-1.088-6.574.186-1.238.777-2.211 2.02-2.83 3.7-.619 1.709-.855 3.605-.708 5.718.207 2.86 1.15 5.16 2.86 6.9 1.71 1.772 3.773 2.642 6.161 2.673 1.917 0 3.626-.653 4.57-1.43M162.667 0c6.014 0 10.967 4.32 10.967 11.345 0 6.993-4.953 11.344-10.967 11.344S151.7 18.338 151.7 11.345C151.7 4.32 156.653 0 162.667 0m1.179 22.192c4.393 0 7.282-3.73 7.282-9.138 0-6.34-4.039-12.557-9.64-12.557-4.393 0-7.282 3.73-7.282 9.076 0 6.372 4.039 12.619 9.64 12.619m15.182-8.641c3.066 3.357 7.371 5.44 12.147 5.44.265 0 .56 0 .825-.032l-3.066 2.953c-4.481-.994-8.196-4.165-10.112-8.423h-.029v6.558c.029 1.12.825 2.052 1.886 2.145v.062h-6.132v-.062c1.032-.093 1.858-1.026 1.858-2.145V2.86c0-1.118-.826-2.02-1.858-2.144V.684h9.759C188.698.684 192 2.673 192 6.65c0 4.352-3.449 7.709-8.756 7.553a17.2 17.2 0 0 1-4.216-.653M182.773.995h-3.98v12.308c1.002.248 2.594.497 2.653.497h.147c.03 0 .089.031.118.031.472.031.944.062 1.386.093h.324c4.245 0 5.955-2.61 5.955-6.185 0-3.325-.825-6.744-6.603-6.744"/></svg>
